packages/icons/src/components/Icon/assets/default-solid/video.svg

<svg width="20" height="20" viewBox="0 0 20 20" fill="none" xmlns="http://www.w3.org/2000/svg">
<path d="M4 4.66675C2.89543 4.66675 2 5.56218 2 6.66675V13.3334C2 14.438 2.89543 15.3334 4 15.3334H10.6667C11.7712 15.3334 12.6667 14.438 12.6667 13.3334V6.66675C12.6667 5.56218 11.7712 4.66675 10.6667 4.66675H4Z" fill="#727683"/>
<path d="M18 5.33343C18 5.06379 17.8376 4.8207 17.5885 4.71751C17.3393 4.61433 17.0526 4.67136 16.8619 4.86203L14.1953 7.5287C14.0702 7.65372 14 7.82329 14 8.0001V12.0001C14 12.1769 14.0702 12.3465 14.1953 12.4715L16.8619 15.1382C17.0526 15.3288 17.3393 15.3859 17.5885 15.2827C17.8376 15.1795 18 14.9364 18 14.6668V5.33343Z" fill="#727683"/>
</svg>

<svg xmlns="http://www.w3.org/2000/svg" width="20" height="20" fill="none" viewBox="0 0 20 20">
    <path fill="#727683" d="M4 4.667a2 2 0 0 0-2 2v6.666a2 2 0 0 0 2 2h6.667a2 2 0 0 0 2-2V6.667a2 2 0 0 0-2-2zm14 .666a.667.667 0 0 0-1.138-.471l-2.667 2.667A.67.67 0 0 0 14 8v4c0 .177.07.347.195.472l2.667 2.666A.667.667 0 0 0 18 14.667z"/>
</svg>
